M48
;DRILL FILE
;Generated by LibrePCB 0.1.3
;Creation Date: 2020-05-24T18:28:55
FMAT,2
METRIC,TZ
T1C0.3
T2C0.5
T3C0.7
T4C0.787
T5C0.8
T6C0.9
T7C1.0
T8C1.49
%
G90
G05
M71
T1
X6.328125Y65.9375
X11.953125Y69.0625
X18.90625Y51.875
X-1.171875Y59.84375
X19.0625Y60.46875
X-0.507811Y72.304685
X8.203125Y62.578125
X-0.9375Y73.828125
X5.46875Y73.90625
X1.90625Y68.21875
X3.671875Y65.46875
X2.65625Y68.75
X16.5625Y65.390625
X8.59375Y67.070314
X12.890625Y71.09375
X18.359375Y62.265625
X7.265625Y70.46875
X7.1875Y67.8125
X7.65625Y66.445312
X9.921875Y68.28125
X3.984375Y73.984375
X2.265625Y64.453125
X-0.78125Y67.15625
X19.453125Y69.6875
X12.8125Y74.296875
X16.40625Y71.875
X16.796875Y57.109375
X1.40625Y65.390625
X12.8125Y66.40625
X15.625Y67.65625
X21.640625Y68.4375
X-1.5625Y70.9375
X8.90625Y45.9375
X-1.640625Y46.71875
X3.554688Y64.531251
X-0.640625Y62.578125
X14.140625Y72.734374
X2.890625Y74.453125
X8.398437Y44.726561
X16.171875Y61.40625
X16.328125Y46.71875
X14.921875Y71.875
X9.6875Y71.484375
X5.3125Y65.625
X3.359375Y69.375
X16.25Y66.328125
T2
X23.42375Y70.949375
X23.42375Y72.949375
X27.9375Y75.796875
X27.9375Y77.796875
T3
X7.50625Y72.346875
X7.50625Y73.746875
T4
X25.365975Y82.734375
X23.359375Y82.734375
X21.352775Y82.734375
X0.96215Y82.65625
X2.96875Y82.65625
X4.97535Y82.65625
T5
X23.42375Y74.949375
X23.42375Y76.949375
T6
X-1.23125Y41.575
T7
X22.5Y48.65
X22.5Y43.57
X22.5Y46.11
X22.5Y66.43
X22.5Y51.19
X22.5Y58.81
X22.5Y56.27
X22.5Y61.35
X22.5Y63.89
X22.5Y53.73
X-0.75125Y78.105
X6.86875Y78.105
X17.02875Y78.105
X1.78875Y78.105
X14.48875Y78.105
X4.32875Y78.105
X9.40875Y78.105
X11.94875Y78.105
X12.96875Y83.046875
X10.42875Y83.046875
X15.50875Y83.046875
X27.96875Y72.05125
X27.96875Y69.51125
T8
X27.461475Y82.734375
X19.257275Y82.734375
X-1.13335Y82.65625
X7.07085Y82.65625
T0
M30
